icon-themes/colibre_dark_svg/sw/res/twopages_10x24.svg

<svg viewBox="0 0 24 10" xmlns="http://www.w3.org/2000/svg"><g fill="#fafafa"><path d="m8 0c.1325995.00002553.2597597.05271625.3535156.14648438l2.5000004 2.50000002c.093768.0937559.146459.2209161.146484.3535156v1 3 2c0 .554-.446 1-1 1h-6c-.554 0-1-.446-1-1v-8c0-.554.446-1 1-1h.9648438.0351562 2zm0 1h-1-2-1v8h6v-1.9648438c-.0004121-.0117151-.0004121-.0234411 0-.0351562v-3-1h-2z"/><path d="m18 0c.132599.00002553.25976.05271625.353516.14648438l2.5 2.50000002c.093768.0937559.146458.2209161.146484.3535156v1 3 2c0 .554-.446 1-1 1h-6c-.554 0-1-.446-1-1v-8c0-.554.446-1 1-1h.964844.035156 2zm0 1h-1-2-1v8h6v-1.9648438c-.000412-.0117151-.000412-.0234411 0-.0351562v-3-1h-2z"/></g></svg>

<?xml version="1.0" encoding="UTF-8" standalone="no"?>
<svg
   viewBox="0 0 24 14"
   version="1.1"
   id="svg522"
   sodipodi:docname="twopages_10x24.svg"
   width="24"
   height="14"
   inkscape:export-filename="twopages_10x24.png"
   inkscape:export-xdpi="90"
   inkscape:export-ydpi="90"
   inkscape:version="1.2.2 (b0a8486541, 2022-12-01)"
   xmlns:inkscape="http://www.inkscape.org/namespaces/inkscape"
   xmlns:sodipodi="http://sodipodi.sourceforge.net/DTD/sodipodi-0.dtd"
   xmlns="http://www.w3.org/2000/svg"
   xmlns:svg="http://www.w3.org/2000/svg">
  <defs
     id="defs526" />
  <sodipodi:namedview
     id="namedview524"
     pagecolor="#505050"
     bordercolor="#ffffff"
     borderopacity="1"
     inkscape:showpageshadow="0"
     inkscape:pageopacity="0"
     inkscape:pagecheckerboard="1"
     inkscape:deskcolor="#505050"
     showgrid="false"
     inkscape:zoom="23.6"
     inkscape:cx="12.012712"
     inkscape:cy="5"
     inkscape:window-width="1322"
     inkscape:window-height="458"
     inkscape:window-x="1822"
     inkscape:window-y="972"
     inkscape:window-maximized="0"
     inkscape:current-layer="svg522" />
  <g
     fill="#fafafa"
     id="g520"
     transform="translate(0,2)">
    <path
       d="M 8,0 C 8.1325995,2.553e-5 8.2597597,0.05271625 8.3535156,0.14648438 L 10.853516,2.6464844 C 10.947284,2.7402403 10.999975,2.8674005 11,3 v 1 3 2 c 0,0.554 -0.446,1 -1,1 H 4 C 3.446,10 3,9.554 3,9 V 1 C 3,0.446 3.446,0 4,0 H 4.9648438 5 7 Z M 8,1 H 7 5 4 v 8 h 6 V 7.0351562 C 9.9995879,7.0234411 9.9995879,7.0117151 10,7 V 4 3 H 8 Z"
       id="path516" />
    <path
       d="m 18,0 c 0.132599,2.553e-5 0.25976,0.05271625 0.353516,0.14648438 l 2.5,2.50000002 C 20.947284,2.7402403 20.999974,2.8674005 21,3 v 1 3 2 c 0,0.554 -0.446,1 -1,1 H 14 C 13.446,10 13,9.554 13,9 V 1 C 13,0.446 13.446,0 14,0 H 14.964844 15 17 Z m 0,1 h -1 -2 -1 v 8 h 6 V 7.0351562 C 19.999588,7.0234411 19.999588,7.0117151 20,7 V 4 3 h -2 z"
       id="path518" />
  </g>
</svg>
